X:325
T:Sweetheart, The
R:reel
Z:Transcribed by Dave Marshall
M:C|
K:Edor
|: B,~E3 B2AF | BFAF DEFD | B,~E3 ~B3c | dBAF FEE2 :|
|: Bdeg f2ed | BdAF DEFA | Bdeg f2ed | BdAF FEE2 :|
| ~G3E ~F3D | EGFE D~B,3 | ~G3E ~F3D | EGFD ~E3F |
~G3E ~F3D | EGFE D~B,3 | DFEG FAdB | AFDF E4 |
